packages/kaspersky-hexa-ui-icons/src/iconsSVGs/16/TwoStepVerification1.svg

<svg width="16" height="16" viewBox="0 0 16 16" fill="none" xmlns="http://www.w3.org/2000/svg">
<path fill-rule="evenodd" clip-rule="evenodd" d="M2.66746 2.0166C2.31972 2.0166 2.03358 2.29028 2.0181 2.63768L2.66746 2.6666C2.0181 2.63768 2.01811 2.63743 2.0181 2.63768L2.01806 2.63868L2.01801 2.63988L2.01789 2.64286L2.01759 2.65118L2.01689 2.67704C2.01642 2.69834 2.01604 2.72768 2.01613 2.76463C2.0163 2.83852 2.01837 2.94295 2.02555 3.07449C2.0399 3.33745 2.0747 3.70955 2.15581 4.16315C2.31798 5.07004 2.66609 6.30689 3.40918 7.64825C3.91591 8.56296 4.60503 9.52384 5.54052 10.4595C6.43008 11.3492 7.3647 12.0141 8.26457 12.511C8.32427 12.558 8.39032 12.5931 8.45949 12.6163C9.27026 13.0449 10.0477 13.3387 10.7325 13.5402C11.48 13.7601 12.1196 13.8707 12.5764 13.9264C12.805 13.9543 12.9884 13.9685 13.1172 13.9757C13.1817 13.9794 13.2326 13.9812 13.2688 13.9822C13.2869 13.9827 13.3013 13.983 13.3119 13.9831L13.3249 13.9832L13.3292 13.9833L13.3308 13.9833C13.3311 13.9833 13.3321 13.9833 13.3321 13.3333V13.9833C13.691 13.9833 13.9821 13.6923 13.9821 13.3333L13.9821 11.4474C13.9821 10.6903 13.4668 10.0303 12.7323 9.84662L11.373 9.50672C10.8106 9.3661 10.2157 9.5309 9.8059 9.94082L8.56353 11.1834C7.86283 10.7638 7.14639 10.227 6.45985 9.54036C5.75939 8.83978 5.21567 8.12764 4.79328 7.44095L6.05205 6.19613C6.46647 5.78631 6.63393 5.18825 6.4926 4.62281L6.15359 3.26649C5.96998 2.53193 5.30999 2.0166 4.55283 2.0166H2.66746ZM3.43551 3.93431C3.39352 3.6995 3.36613 3.49177 3.34833 3.3166H4.55283C4.71344 3.3166 4.85344 3.42591 4.89239 3.58173L5.2314 4.93805C5.26138 5.05799 5.22586 5.18485 5.13795 5.27178L4.15702 6.24184C3.75649 5.35289 3.54585 4.55136 3.43551 3.93431ZM11.0993 12.293C10.6896 12.1725 10.2432 12.0151 9.77579 11.8096L10.7252 10.86C10.8122 10.773 10.9384 10.7381 11.0576 10.7679L12.417 11.1078C12.5728 11.1468 12.6821 11.2867 12.6821 11.4473L12.6821 12.6295C12.288 12.579 11.7397 12.4814 11.0993 12.293Z" fill="black"/>
<path d="M10.3053 3.58941C10.1668 3.3505 10.2483 3.04456 10.4872 2.90608C10.7261 2.7676 11.032 2.849 11.1705 3.08791L11.4864 3.633L11.8015 3.08947C11.94 2.85056 12.2459 2.76915 12.4848 2.90764C12.7237 3.04612 12.8052 3.35206 12.6667 3.59096L12.356 4.12685L12.9845 4.12572C13.2606 4.12522 13.4848 4.34868 13.4854 4.62485C13.4859 4.90101 13.2625 5.12529 12.9863 5.12579L12.3524 5.12693L12.6689 5.6729C12.8074 5.9118 12.726 6.21774 12.4871 6.35623C12.2481 6.49471 11.9422 6.4133 11.8037 6.17439L11.4864 5.62704L11.1683 6.17595C11.0298 6.41486 10.7239 6.49626 10.4849 6.35778C10.246 6.2193 10.1646 5.91336 10.3031 5.67445L10.6187 5.13007L9.99892 5.13119C9.72279 5.13169 9.49853 4.90823 9.49801 4.63206C9.49748 4.3559 9.7209 4.13162 9.99702 4.13112L10.6187 4.13L10.3053 3.58941Z" fill="black"/>
</svg>

<svg xmlns="http://www.w3.org/2000/svg" width="16" height="16" fill="none" viewBox="0 0 16 16"><path fill="#000" fill-rule="evenodd" d="M2.6675 2.0166a.65.65 0 0 0-.6494.621l.6494.029c-.6494-.029-.6494-.0292-.6494-.029V2.64l-.0002.003-.0003.0083-.0007.0258a4 4 0 0 0-.0008.0876c.0002.074.0023.1784.0095.3099.0143.263.0491.635.1302 1.0886.1622.907.5103 2.1438 1.2534 3.4852.5067.9147 1.1958 1.8755 2.1313 2.8112a12.15 12.15 0 0 0 2.724 2.0515.65.65 0 0 0 .195.1053 12.3 12.3 0 0 0 2.273.9239c.7475.2199 1.3871.3305 1.8439.3862.2286.0279.412.0421.5408.0493a5 5 0 0 0 .1947.0074l.013.0001.0043.0001h.0016c.0003 0 .0013 0 .0013-.65v.65a.65.65 0 0 0 .65-.65v-1.8859a1.65 1.65 0 0 0-1.2498-1.6008l-1.3593-.3399a1.65 1.65 0 0 0-1.5671.4341l-1.2424 1.2426A10.86 10.86 0 0 1 6.46 9.5404c-.7005-.7006-1.2442-1.4128-1.6666-2.0994L6.052 6.196a1.65 1.65 0 0 0 .4405-1.5733l-.339-1.3563a1.65 1.65 0 0 0-1.6008-1.2499zm.768 1.9177a8.3 8.3 0 0 1-.0872-.6177h1.2045a.35.35 0 0 1 .3396.2651l.339 1.3563a.35.35 0 0 1-.0934.3338l-.981.97c-.4005-.889-.6111-1.6904-.7215-2.3075m7.6638 8.3587a11 11 0 0 1-1.3235-.4834l.9494-.9496a.35.35 0 0 1 .3324-.0921l1.3594.3399a.35.35 0 0 1 .2651.3395v1.1822c-.3941-.0505-.9424-.1481-1.5828-.3365" clip-rule="evenodd"/><path fill="#000" d="M10.3053 3.5894a.5.5 0 0 1 .8652-.5015l.3159.5451.3151-.5435a.5.5 0 1 1 .8652.5015l-.3107.5358.6285-.001a.5001.5001 0 0 1 .0018 1l-.6339.0011.3165.546a.5.5 0 1 1-.8652.5015l-.3173-.5474-.3181.549a.5.5 0 0 1-.8652-.5015l.3156-.5444-.6198.001a.5.5 0 0 1-.0019-1l.6217-.0011z"/></svg>
